X: 1356
T: Con Klippel's Gypsy Tap
B: australian traditional tunes wiki
M:4/4
L:1/8
R: Gypsy Tap
Q: 1/4=100
K:C
V:1 
"C"(3cec G2(3cec G2|(3GcG A>G"G7"B4|(3BdB d2 (3 BdB d>f|g>f e>d"C"c4|
(3cec G2(3cec G2|(3GcG A>G"G7"B4|(3BdB d2 (3 BdB d>f|g>f e>d"C"c4|
"C"(3gc'g e>e (3cec G2|(3GcG A>G "G7"B4|(3faf d>d (3BdA G2|(3GcG A>G "C"E4|
"C"(3gc'g e>e (3cec G2|(3GcG A>G "G7"B4|(3BdB d2 (3BdB d>f|g>f e>d"C"c4||
% abcbook-tune_id 6342d53a9ae461c23b7d8a0a


% abcbook-boost 0
% abcbook-tablature 
% abcbook-transpose 
% abcbook-lastupdated 1665324360818
% abcbook-soundfonts 
% abcbook-repeats 1
% NFF Book 2016

